brandFactory_export/2.Regular/Descargar de la nube_2Regular.svg

<?xml version="1.0" encoding="UTF-8"?>
<svg width="24px" height="24px" viewBox="0 0 24 24" version="1.1" xmlns="http://www.w3.org/2000/svg" xmlns:xlink="http://www.w3.org/1999/xlink">
    <title>2.Regular/Descargar de la nube_2Regular</title>
    <g id="Symbols" stroke="none" stroke-width="1" fill="none" fill-rule="evenodd">
        <g id="2.Regular/Descargar-de-la-nube_2Regular" fill="#5CB615" fill-rule="nonzero">
            <path d="M17.3344538,17.9596639 L16.7630252,17.9596639 L17.5563025,17.1226891 C17.8285714,16.8235294 17.9058824,16.3966387 17.7579832,16.0168067 C17.6033613,15.6470588 17.2470588,15.3983193 16.8403361,15.3983193 L15.1193277,15.3983193 L15.1092437,10.3428571 C15.0991597,9.79495798 14.6655462,9.33781513 14.1142857,9.33781513 L9.5697479,9.33781513 C9.01848739,9.33781513 8.57142857,9.79495798 8.57142857,10.3563025 L8.57142857,15.2907563 L6.84033613,15.3008403 C6.44369748,15.3008403 6.08739496,15.5394958 5.93277311,15.9193277 C5.77815126,16.2957983 5.85546218,16.7361345 6.13445378,17.0252101 L7.07226891,18.0235294 L5.24369748,18.0336134 C4.11092437,18.0336134 1.48235294,17.6638655 1.48235294,14.1747899 C1.48235294,12.2184874 2.29579832,10.9815126 3.89915966,10.5142857 C4.21848739,10.4235294 4.4302521,10.1243697 4.42016807,9.78487395 L4.42016807,9.65378151 C4.42016807,3.94957983 9.25378151,3.51260504 10.7361345,3.51260504 C11.5764706,3.51260504 15.8218487,3.70084034 16.8168067,7.55966387 C16.9042017,7.8789916 17.1831933,8.11092437 17.502521,8.11764706 C18.9142857,8.15798319 22.2016829,8.71596639 22.2016829,13.0252101 C22.205042,17.610084 18.4739496,17.9596639 17.3344538,17.9596639 Z M11.9092437,20.9815126 L7.94621849,16.7831933 L9.03865546,16.7831933 C9.58991597,16.7831933 10.0235294,16.3361345 10.0235294,15.7680672 L10.0235294,10.8336134 L13.6605042,10.8336134 L13.6705882,15.8789916 C13.6705882,16.4369748 14.1142857,16.897479 14.6655462,16.897479 L15.7478992,16.897479 L11.9092437,20.9815126 L11.9092437,20.9815126 Z M18.0672269,6.6487395 C16.5781513,2.24201681 11.7243697,2.01344538 10.7361345,2.01344538 C9.45882353,2.01344538 3.20336134,2.36302521 2.97142857,9.26386555 C1.69411765,9.79159664 0.0302521008,11.0689076 0.0302521008,14.1714286 C0.0302521008,18.1176471 2.71932773,19.5260504 5.24369748,19.5260504 L8.48403361,19.5058824 L11.2,22.3764706 C11.3848739,22.5647059 11.6336134,22.6857143 11.9058824,22.6857143 C12.1680672,22.6857143 12.4268908,22.5680672 12.6117647,22.3764706 L15.3478992,19.4655462 L17.3310924,19.4554622 C20.2521008,19.4554622 23.6537845,17.7714286 23.6537845,13.0252101 C23.6571429,8.70588235 20.8638655,6.9210084 18.0672269,6.6487395 Z" id="Descargar-de-la-nube_2Regular"></path>
        </g>
    </g>
</svg>

<svg width="24" height="24" viewBox="0 0 24 24" xmlns="http://www.w3.org/2000/svg"><path d="M17.334 17.96h-.571l.793-.837c.273-.3.35-.726.202-1.106a.996.996 0 00-.918-.619h-1.72l-.01-5.055c-.01-.548-.444-1.005-.996-1.005H9.57a1.01 1.01 0 00-.999 1.018v4.935l-1.73.01a.977.977 0 00-.908.618c-.155.377-.078.817.201 1.106l.938.999-1.828.01c-1.133 0-3.762-.37-3.762-3.86 0-1.956.814-3.192 2.417-3.66.32-.09.531-.39.521-.73v-.13c0-5.704 4.834-6.141 6.316-6.141.84 0 5.086.188 6.08 4.047.088.319.367.55.687.558 1.411.04 4.699.598 4.699 4.907.003 4.585-3.728 4.935-4.868 4.935zm-5.425 3.022l-3.963-4.199H9.04c.55 0 .985-.447.985-1.015v-4.934h3.637l.01 5.045c0 .558.443 1.018.995 1.018h1.082l-3.839 4.085zm6.158-14.333c-1.489-4.407-6.343-4.636-7.33-4.636-1.278 0-7.534.35-7.766 7.25-1.277.529-2.94 1.806-2.94 4.908 0 3.947 2.688 5.355 5.213 5.355l3.24-.02 2.716 2.87c.185.189.434.31.706.31a.997.997 0 00.706-.31l2.736-2.91 1.983-.01c2.921 0 6.323-1.685 6.323-6.43.003-4.32-2.79-6.105-5.587-6.377z" fill="#5CB615" fill-rule="nonzero"/></svg>
